src/icons/svgs/24/filter.svg

<svg width="24" height="24" viewBox="0 0 24 24" fill="none" xmlns="http://www.w3.org/2000/svg">
<path d="M20.8488 5.06402C20.5781 4.48465 20.0086 4.125 19.3582 4.125H4.64002C3.99173 4.125 3.4208 4.48465 3.15055 5.06402C2.88765 5.62723 2.97336 6.27516 3.37404 6.75469L9.18888 13.8949V16.2754C9.18888 16.7166 9.40608 17.1296 9.76966 17.381L12.6637 19.6152C12.8824 19.7906 13.1812 19.875 13.4554 19.875C14.2036 19.875 14.8121 19.2707 14.8121 18.5275V13.8949L20.6305 6.74766C21.0281 6.27516 21.1125 5.62723 20.8488 5.06402ZM13.3781 12.9527C13.2145 13.1537 13.1253 13.4049 13.1253 13.6639V17.8395L10.8753 16.1031V13.6945C10.8753 13.4354 10.786 13.1841 10.6225 12.9833L4.78486 5.81391H19.213L13.3781 12.9527Z" fill="black"/>
</svg>

<svg width="24" height="24" viewBox="0 0 24 24" xmlns="http://www.w3.org/2000/svg">
    <path d="M20.849 5.064c-.27-.58-.84-.939-1.49-.939H4.64c-.648 0-1.22.36-1.49.939a1.575 1.575 0 0 0 .224 1.69l5.815 7.14v2.381c0 .442.217.855.58 1.106l2.895 2.234c.218.176.517.26.791.26.749 0 1.357-.604 1.357-1.348v-4.632l5.819-7.147c.397-.473.482-1.12.218-1.684zm-7.47 7.889a1.127 1.127 0 0 0-.254.71v4.177l-2.25-1.737v-2.409c0-.259-.089-.51-.252-.71l-5.838-7.17h14.428l-5.835 7.139z"/>
</svg>
